blockchains/ethereum/assets/0xD7C81C98B9E78EAEa4f146Fe24974b7E9866B2B5/logo.svg

<svg fill="none" height="250" viewBox="0 0 250 250" width="250" xmlns="http://www.w3.org/2000/svg" xmlns:xlink="http://www.w3.org/1999/xlink"><linearGradient id="a" gradientUnits="userSpaceOnUse" x1="32.1288" x2="208.234" y1="31.4431" y2="153.548"><stop offset="0" stop-color="#b290d8"/><stop offset="1" stop-color="#26bfe2"/></linearGradient><path d="m237.5 7.72656c-.702 0-1.405.42135-1.685 1.1236l-77.95 159.83184c-6.741 13.764-26.264 13.764-32.865 0l-77.6686-158.98915c-.5618-1.12359-1.8259-1.96629-3.0899-1.96629h-40.44946c-2.52809 0-4.213485 2.66854-3.08989 4.91574l107.44385 218.3987c7.303 14.747 28.371 14.607 35.534-.281l104.775-220.3649c.562-1.26404-.281-2.66854-1.685-2.66854z" fill="url(#a)"/><g fill="#fff"><path d="m98.5953 211.801-93.67977-190.4494 67.27527 77.9494z" opacity=".2"/><path d="m116.011 150.14-43.82-50.8428-17.6966-74.7191z" opacity=".2"/><path d="m72.1909 99.3076-67.27527-77.9495-4.21348-8.5674c-1.123595-2.2472.5618-4.9157 3.08989-4.9157h40.44946c1.264 0 2.5281.70225 3.0899 1.96629l7.3033 14.88761z" opacity=".1"/></g></svg>

<svg width="250" height="250" viewBox="0 0 250 250" fill="none" xmlns="http://www.w3.org/2000/svg">
<path d="M237.5 7.72656C236.798 7.72656 236.095 8.14791 235.815 8.85016L157.865 168.682C151.124 182.446 131.601 182.446 125 168.682L47.3314 9.69285C46.7696 8.56926 45.5055 7.72656 44.2415 7.72656H3.79204C1.26395 7.72656 -0.421445 10.3951 0.70215 12.6423L108.146 231.041C115.449 245.788 136.517 245.648 143.68 230.76L248.455 10.3951C249.017 9.13106 248.174 7.72656 246.77 7.72656H237.5Z" fill="url(#paint0_linear_47_12236)"/>
<path opacity="0.2" d="M98.5953 211.801L4.91553 21.3516L72.1908 99.301L98.5953 211.801Z" fill="white"/>
<path opacity="0.2" d="M116.011 150.14L72.191 99.2972L54.4944 24.5781L116.011 150.14Z" fill="white"/>
<path opacity="0.1" d="M72.1909 99.3076L4.91563 21.3581L0.70215 12.7907C-0.421445 10.5435 1.26395 7.875 3.79204 7.875H44.2415C45.5055 7.875 46.7696 8.57725 47.3314 9.84129L54.6347 24.7289L72.1909 99.3076Z" fill="white"/>
<defs>
<linearGradient id="paint0_linear_47_12236" x1="32.1288" y1="31.4431" x2="208.234" y2="153.548" gradientUnits="userSpaceOnUse">
<stop stop-color="#B290D8"/>
<stop offset="1" stop-color="#26BFE2"/>
</linearGradient>
</defs>
</svg>
